X: 6
T:The Dawn
M:4/4
L:1/8
S:Connie Connel, Cork (fiddle)
R:Reel
D:Session tape - Milltown Malbay 1983
N:As played
H:The phrase "~g3g ed" actually sounds more like "~g3g {g}ed" but this
H:doesn't seem playable to me.
Z:Bernie Stocks
K:G
G,2B,D ~C3E | DG,B,D ~G3B | ADBD cDBD | (3ABcBA GEDB, | G,2B,D ~C3E |\
D2B,D GABd | edeg {a}gedB  |ceAc BGG2 :: ~g3g ed (3.B.c.d | ea{b}ae fedg |\
fd(3.d.d.d bdag | {a}g2dg bgef | ~g3g edBA | c2AB cdef | ~g3g edBd | ceAc BGG2 :|
<end>
<start>
